X:1
T: Miss Bruce
C:
R:Reel
Q: 232
K:G
M:4/4
L:1/8
|:b|g2 dB dg da|gd e1/2d1/2c1/2B1/2 cA Af|g2 dB dg fa|b1/2a1/2g1/2f1/2 gd BG Gb|
g2 dB dg da|gd e1/2d1/2c1/2B1/2 cA Af|g2 dB dg fa|b1/2a1/2g1/2f1/2 gd BG Gd|
BG dB gd ec|BG dB cA Ad|BG dB d2 ga|b1/2a1/2g1/2f1/2 gd BG Gd|
BG dB gd ec|BG dB cA Ad|BG dB d2 ga|b1/2a1/2g1/2f1/2 gd BG G:|
